icons/1_Primary/Zone.svg

<svg width="1024" height="1024" fill="none" xmlns="http://www.w3.org/2000/svg"><g clip-path="url(#a)"><path d="M512 1024c282.77 0 512-229.23 512-512S794.77 0 512 0 0 229.23 0 512s229.23 512 512 512Z" fill="#FF837D"/><path d="M598.39 800 451.26 523.28l69.62-37.02 147.13 276.72L598.39 800ZM470.11 600.94l-179.42 34.88 15.05 77.42 179.42-34.88-15.05-77.42Zm263.21-174.02-387.05-75.23-15.05 77.41 387.05 75.23 15.05-77.42v.01Zm-106.66-134.9c0-37.57-30.45-68.02-68.02-68.02-37.57 0-68.01 30.45-68.01 68.02 0 37.57 30.45 68.02 68.01 68.02s68.02-30.46 68.02-68.02Z" fill="#fff"/></g><defs><clipPath id="a"><path fill="#fff" d="M0 0h1024v1024H0z"/></clipPath></defs></svg>

<svg width="1024" height="1024" viewBox="0 0 1024 1024" fill="none" xmlns="http://www.w3.org/2000/svg">
<g clip-path="url(#clip0_2_4045)">
<path d="M512 1024C794.77 1024 1024 794.77 1024 512C1024 229.23 794.77 0 512 0C229.23 0 0 229.23 0 512C0 794.77 229.23 1024 512 1024Z" fill="#FF837D"/>
<path d="M598.39 800L451.26 523.28L520.88 486.26L668.01 762.98L598.39 800ZM470.11 600.94L290.69 635.82L305.74 713.24L485.16 678.36L470.11 600.94ZM733.32 426.92L346.27 351.69L331.22 429.1L718.27 504.33L733.32 426.91V426.92ZM626.66 292.02C626.66 254.45 596.21 224 558.64 224C521.07 224 490.63 254.45 490.63 292.02C490.63 329.59 521.08 360.04 558.64 360.04C596.2 360.04 626.66 329.58 626.66 292.02Z" fill="white"/>
</g>
<defs>
<clipPath id="clip0_2_4045">
<rect width="1024" height="1024" fill="white"/>
</clipPath>
</defs>
</svg>
